src/Assets/icons/14-world/world-icon.svg

<svg viewBox="0 0 2000 2000" xmlns="http://www.w3.org/2000/svg" xml:space="preserve" style="fill-rule:evenodd;clip-rule:evenodd;stroke-linecap:round;stroke-linejoin:round;stroke-miterlimit:1.5">
    <path d="M1399 457.84c0-25.3-15.18-45.84-33.88-45.84H585.88c-18.699 0-33.88 20.54-33.88 45.84v1054.32c0 25.3 15.181 45.84 33.88 45.84h779.24c18.7 0 33.88-20.54 33.88-45.84V457.84Z" style="fill:#e6e6e6" transform="matrix(2.36128 0 0 1.7452 -1303.42 -719.023)"/>
    <path style="fill:none" d="M0 0h2000v2000H0z"/>
    <clipPath id="a">
        <path d="M0 0h2000v2000H0z"/>
    </clipPath>
    <g clip-path="url(#a)">
        <circle cx="1037.06" cy="822.748" r="892.064" style="fill:#169bbc" transform="matrix(1.10262 0 0 1.121 -143.486 77.703)"/>
        <path d="m1517 689-173.07 30.5L1228 837l-65 179.67 56 68.33s93.44 76.69 124.93 97c31.5 20.31 153.07 16 153.07 16l75-44 113 63s37.49 115.33-5 150-149 133-149 133-86.23 113.69-95 132c-8.77 18.31-28.05 124.53-24 142 4.05 17.47 133 40 133 40l200-184 200-349.5 38.61-293.5L1939 719.5 1781 638l-115 62-134-11M390 820l-32-76-46-54 21-111 176-62.333 88-33.334L708 393l54-72 87-33 80 7 2-120-108-27-60-4-118-29-28-19-48.5 25L428 213l-95 79-90 88-64 103.333L145.333 556 107 611l112-22 24 49 23 60 67 82v75l41 47 26 14-10-96ZM1425 562l-19 57-88 16-47-58 96-60.333 10-33.334 1-38.333 3-66-11-72 109 16 33-26 22-34s17.13-14.858 0-20c-17.13-5.142-30.73-16.477-61-5s-36 16-36 16l-41 27-38-47 38-32 44-23 49-32 161 120 63 76 60 63 62 77.333h-52L1705 467l-39-33-53 5s6.5 9.152 16 24 37 37 37 37v16.667h27L1644 542s-.14 8.039-17 11c-16.86 2.961-24-19-24-19l-1-28-16-22.667L1568 458l-37 25.333h-35l-3 33.334L1445 554l-20 8ZM983 123l68 46 50 2 84-10 8-27 1-43-39-36-39-22h-94l-96-2-8 37 65 55Z" style="fill:#31bd2c;stroke:#2cbd31;stroke-width:33.33px"/>
        <path d="M889 1280.5 703 1135l-37-193-333 1-90 247 254 326.67L627 1882l267-365.33-5-236.17" style="fill:#31bd2c;stroke:#31bd2c;stroke-width:33.33px"/>
        <path d="M1000 0C448.085 0 0 448.085 0 1000c0 551.91 448.085 1000 1000 1000 551.91 0 1000-448.09 1000-1000C2000 448.085 1551.91 0 1000 0Zm0 71.959c512.2 0 928.04 415.841 928.04 928.041S1512.2 1928.04 1000 1928.04 71.959 1512.2 71.959 1000 487.8 71.959 1000 71.959Z" style="fill:#172b4d"/>
    </g>
</svg>

<?xml version="1.0" encoding="UTF-8" standalone="no"?>
<!DOCTYPE svg PUBLIC "-//W3C//DTD SVG 1.1//EN" "http://www.w3.org/Graphics/SVG/1.1/DTD/svg11.dtd">
<svg width="100%" height="100%" viewBox="0 0 2000 2000" version="1.1" xmlns="http://www.w3.org/2000/svg" xmlns:xlink="http://www.w3.org/1999/xlink" xml:space="preserve" xmlns:serif="http://www.serif.com/" style="fill-rule:evenodd;clip-rule:evenodd;stroke-linecap:round;stroke-linejoin:round;stroke-miterlimit:1.5;">
    <g transform="matrix(2.36128,0,0,1.7452,-1303.42,-719.023)">
        <path d="M1399,457.84C1399,432.54 1383.82,412 1365.12,412L585.88,412C567.181,412 552,432.54 552,457.84L552,1512.16C552,1537.46 567.181,1558 585.88,1558L1365.12,1558C1383.82,1558 1399,1537.46 1399,1512.16L1399,457.84Z" style="fill:rgb(230,230,230);"/>
    </g>
    <rect id="lernwelt-icon" x="0" y="0" width="2000" height="2000" style="fill:none;"/>
    <clipPath id="_clip1">
        <rect id="lernwelt-icon1" serif:id="lernwelt-icon" x="0" y="0" width="2000" height="2000"/>
    </clipPath>
    <g clip-path="url(#_clip1)">
        <g transform="matrix(1.10262,0,0,1.121,-143.486,77.7028)">
            <circle cx="1037.06" cy="822.748" r="892.064" style="fill:rgb(22,155,188);"/>
        </g>
        <path d="M1517,689L1343.93,719.5L1228,837L1163,1016.67L1219,1085C1219,1085 1312.44,1161.69 1343.93,1182C1375.43,1202.31 1497,1198 1497,1198L1572,1154L1685,1217C1685,1217 1722.49,1332.33 1680,1367C1637.51,1401.67 1531,1500 1531,1500C1531,1500 1444.77,1613.69 1436,1632C1427.23,1650.31 1407.95,1756.53 1412,1774C1416.05,1791.47 1545,1814 1545,1814L1745,1630L1945,1280.5L1983.61,987L1939,719.5L1781,638L1666,700L1532,689" style="fill:rgb(49,189,44);stroke:rgb(44,189,49);stroke-width:33.33px;"/>
        <path d="M390,820L358,744L312,690L333,579L509,516.667L597,483.333L708,393L762,321L849,288L929,295L931,175L823,148L763,144L645,115L617,96L568.5,121L428,213L333,292L243,380L179,483.333L145.333,556L107,611L219,589L243,638L266,698L333,780L333,855L374,902L400,916L390,820Z" style="fill:rgb(49,189,44);stroke:rgb(44,189,49);stroke-width:33.33px;"/>
        <path d="M1425,562L1406,619L1318,635L1271,577L1367,516.667L1377,483.333L1378,445L1381,379L1370,307L1479,323L1512,297L1534,263C1534,263 1551.13,248.142 1534,243C1516.87,237.858 1503.27,226.523 1473,238C1442.73,249.477 1437,254 1437,254L1396,281L1358,234L1396,202L1440,179L1489,147L1650,267L1713,343L1773,406L1835,483.333L1783,483.333L1705,467L1666,434L1613,439C1613,439 1619.5,448.152 1629,463C1638.5,477.848 1666,500 1666,500L1666,516.667L1693,516.667L1644,542C1644,542 1643.86,550.039 1627,553C1610.14,555.961 1603,534 1603,534L1602,506L1586,483.333L1568,458L1531,483.333L1496,483.333L1493,516.667L1445,554L1425,562Z" style="fill:rgb(49,189,44);stroke:rgb(44,189,49);stroke-width:33.33px;"/>
        <path d="M983,123L1051,169L1101,171L1185,161L1193,134L1194,91L1155,55L1116,33L1022,33L926,31L918,68L983,123Z" style="fill:rgb(49,189,44);stroke:rgb(44,189,49);stroke-width:33.33px;"/>
        <path d="M889,1280.5L703,1135L666,942L333,943L243,1190L497,1516.67L627,1882L894,1516.67L889,1280.5" style="fill:rgb(49,189,44);stroke:rgb(49,189,44);stroke-width:33.33px;"/>
        <path d="M1000,0C448.085,0 -0,448.085 -0,1000C-0,1551.91 448.085,2000 1000,2000C1551.91,2000 2000,1551.91 2000,1000C2000,448.085 1551.91,0 1000,0ZM1000,71.959C1512.2,71.959 1928.04,487.8 1928.04,1000C1928.04,1512.2 1512.2,1928.04 1000,1928.04C487.8,1928.04 71.959,1512.2 71.959,1000C71.959,487.8 487.8,71.959 1000,71.959Z" style="fill:rgb(23,43,77);"/>
    </g>
</svg>
